svgs/sharp-solid/boombox.svg

<svg xmlns="http://www.w3.org/2000/svg" viewBox="0 0 640 512"><!--! Font Awesome Pro 6.6.0 by @fontawesome - https://fontawesome.com License - https://fontawesome.com/license (Commercial License) Copyright 2024 Fonticons, Inc. --><path d="M32 0L56 0 584 0l24 0 0 24 0 136 32 0 0 352L0 512 0 160l32 0L32 24 32 0zM80 160l112 0 0-32 64 0 0 32 32 0 0-32 64 0 0 32 32 0 0-32 64 0 0 32 112 0 0-112L80 48l0 112zM96 336a80 80 0 1 1 160 0A80 80 0 1 1 96 336zm192 0A112 112 0 1 0 64 336a112 112 0 1 0 224 0zm176-80a80 80 0 1 1 0 160 80 80 0 1 1 0-160zm0 192a112 112 0 1 0 0-224 112 112 0 1 0 0 224z"/></svg>

<svg xmlns="http://www.w3.org/2000/svg" viewBox="0 0 640 512"><!--! Font Awesome Pro 6.5.2 by @fontawesome - https://fontawesome.com License - https://fontawesome.com/license (Commercial License) Copyright 2024 Fonticons, Inc. --><path d="M32 0H56 584h24V24 160h32V512H0V160H32V24 0zM80 160H192V128h64v32h32V128h64v32h32V128h64v32H560V48H80V160zM96 336a80 80 0 1 1 160 0A80 80 0 1 1 96 336zm192 0A112 112 0 1 0 64 336a112 112 0 1 0 224 0zm176-80a80 80 0 1 1 0 160 80 80 0 1 1 0-160zm0 192a112 112 0 1 0 0-224 112 112 0 1 0 0 224z"/></svg>
